svg/white/gsc.svg

<svg width="32" height="32" viewBox="0 0 32 32" version="1.1" xmlns="http://www.w3.org/2000/svg" xmlns:xlink="http://www.w3.org/1999/xlink"><title>svg/white/gsc</title><desc>Created with Sketch.</desc><g id="white/gsc" stroke="none" stroke-width="1" fill="none" fill-rule="evenodd"><path d="M16,32 C7.163444,32 0,24.836556 0,16 C0,7.163444 7.163444,0 16,0 C24.836556,0 32,7.163444 32,16 C32,24.836556 24.836556,32 16,32 Z M25.0697674,12.0465116 L15.9224806,12.0465116 C13.9583229,12.0435769 12.3024621,13.5103361 12.0683511,15.4604941 C11.8342401,17.410652 13.0958951,19.2276508 15.0049394,19.6896831 C16.9139836,20.1517155 18.8668578,19.1127062 19.5503876,17.2713178 L15.9224806,17.2713178 C15.6509701,17.2717301 15.3904614,17.1640556 15.1984742,16.9720684 C15.0064871,16.7800813 14.8988125,16.5195725 14.8992248,16.248062 L14.8992248,16.124031 C14.8988125,15.8525205 15.0064871,15.5920117 15.1984742,15.4000246 C15.3904614,15.2080375 15.6509701,15.1003629 15.9224806,15.1007752 L21.9689922,15.1007752 C22.0133251,15.3827956 22.0340688,15.6680211 22.0310078,15.9534884 C22.0139032,19.3230454 19.2714948,22.0423615 15.9019137,22.0309729 C12.5323325,22.0195843 9.80836824,19.2817928 9.81404084,15.9121971 C9.81971345,12.5426015 12.5528802,9.8139969 15.9224806,9.81395349 L16.1085271,9.78294574 C16.14772,9.80051136 16.18971,9.81100886 16.2325581,9.81395349 L21.6589147,9.81395349 C24.620155,9.81395349 25.8294574,8.23255814 25.8294574,6 L15.9224806,6 C10.4485138,6.00006014 6.00863402,10.4330891 6.00012101,15.9070494 C5.991608,21.3810096 10.417678,25.8278268 15.8916182,25.8449129 C21.3655583,25.861999 25.819302,21.442899 25.8449612,15.9689922 L25.8449612,12.8372093 C25.8491274,12.6289422 25.7692984,12.4277621 25.6234673,12.2790144 C25.4776363,12.1302667 25.2780762,12.04647 25.0697674,12.0465116 Z" id="Combined-Shape" fill="#FFF" fill-rule="nonzero"/></g></svg>

<svg width="32" height="32" viewBox="0 0 32 32" xmlns="http://www.w3.org/2000/svg"><path d="M16 32C7.163 32 0 24.837 0 16S7.163 0 16 0s16 7.163 16 16-7.163 16-16 16zm9.07-19.953h-9.148a3.876 3.876 0 1 0 3.628 5.224h-3.628a1.022 1.022 0 0 1-1.023-1.023v-.124a1.022 1.022 0 0 1 1.023-1.023h6.047c.044.282.065.567.062.852a6.109 6.109 0 1 1-6.109-6.139l.187-.031c.039.018.08.028.124.031h5.426c2.961 0 4.17-1.581 4.17-3.814h-9.907C10.45 6 6.01 10.433 6 15.907c-.008 5.474 4.418 9.92 9.892 9.938 5.474.017 9.927-4.402 9.953-9.876v-3.132a.775.775 0 0 0-.775-.79z" fill="#FFF"/></svg>
